assets/icons/ic_one_4.svg

<svg enable-background="new 0 0 512 512" viewBox="0 0 512 512" xmlns="http://www.w3.org/2000/svg"><path d="m383.8 251.7h33.8c7.6 0 13.9-6.2 13.9-13.9v-33.8c0-7.6-6.2-13.9-13.9-13.9h-33.8c-7.6 0-13.9 6.2-13.9 13.9v33.8c0 7.7 6.2 13.9 13.9 13.9zm.3-47.3h33.1v33.1h-33.1zm-.3 137.2h33.8c7.6 0 13.9-6.2 13.9-13.9v-33.8c0-7.6-6.2-13.9-13.9-13.9h-33.8c-7.6 0-13.9 6.2-13.9 13.9v33.8c0 7.7 6.2 13.9 13.9 13.9zm.3-47.3h33.1v33.1h-33.1zm-96.8-42.6h33.8c7.6 0 13.9-6.2 13.9-13.9v-33.8c0-7.6-6.2-13.9-13.9-13.9h-33.8c-7.6 0-13.9 6.2-13.9 13.9v33.8c.1 7.7 6.3 13.9 13.9 13.9zm.4-47.3h33.1v33.1h-33.1zm-159.5 161.4h-33.8c-7.6 0-13.9 6.2-13.9 13.9v33.8c0 7.6 6.2 13.9 13.9 13.9h33.8c7.6 0 13.9-6.2 13.9-13.9v-33.8c0-7.7-6.2-13.9-13.9-13.9zm-.3 47.3h-33.1v-33.1h33.1zm.3-222.9h-33.8c-7.6 0-13.9 6.2-13.9 13.9v33.8c0 7.6 6.2 13.9 13.9 13.9h33.8c7.6 0 13.9-6.2 13.9-13.9v-33.9c0-7.6-6.2-13.8-13.9-13.8zm-.3 47.3h-33.1v-33.1h33.1zm159.4 102h33.8c7.6 0 13.9-6.2 13.9-13.9v-33.8c0-7.6-6.2-13.9-13.9-13.9h-33.8c-7.6 0-13.9 6.2-13.9 13.9v33.8c.1 7.7 6.3 13.9 13.9 13.9zm.4-47.3h33.1v33.1h-33.1zm150.8-246h-30.3v-10.9c0-11.9-9.7-21.6-21.6-21.6h-3.3c-11.9 0-21.6 9.7-21.6 21.6v10.9h-211.4v-10.9c0-11.9-9.7-21.6-21.6-21.6h-3.3c-11.9 0-21.6 9.7-21.6 21.6v10.9h-30.3c-19.6 0-35.5 15.9-35.5 35.5v381c0 19.6 15.9 35.5 35.5 35.5h365c19.6 0 35.5-15.9 35.5-35.5v-381c0-19.6-15.9-35.5-35.5-35.5zm-62.6-10.9c0-4.1 3.3-7.4 7.4-7.4h3.3c4.1 0 7.4 3.3 7.4 7.4v10.9h-18v-10.9zm-257.8 0c0-4.1 3.3-7.4 7.4-7.4h3.3c4.1 0 7.4 3.3 7.4 7.4v10.9h-18zm341.7 427.5c0 11.7-9.6 21.3-21.3 21.3h-365c-11.7 0-21.3-9.6-21.3-21.3 5.9 4.5 13.3 7.1 21.3 7.1h287.7c9.5 0 18.4-3.7 25.1-10.4l73.4-73.4v76.7zm-80.6-16.2c.6-2.3.9-4.7.9-7.2v-47.4c0-8.9 7.3-16.2 16.2-16.2h47.4c2.5 0 4.9-.3 7.2-.9zm80.6-299h-302.4c-3.9 0-7.1 3.2-7.1 7.1s3.2 7.1 7.1 7.1h302.4v183.7c0 8.9-7.3 16.2-16.2 16.2h-47.4c-16.8 0-30.4 13.6-30.4 30.4v47.4c0 8.9-7.3 16.2-16.2 16.2h-276.1c-11.8 0-21.3-9.6-21.3-21.3v-272.6h76.8c3.9 0 7.1-3.2 7.1-7.1s-3.2-7.1-7.1-7.1h-76.8v-65.9c0-11.8 9.6-21.3 21.3-21.3h30.3v20.9c0 11.9 9.7 21.6 21.6 21.6 3.9 0 7.1-3.2 7.1-7.1s-3.2-7.1-7.1-7.1c-4.1 0-7.4-3.3-7.4-7.4v-20.9h243.6v20.9c0 11.9 9.7 21.6 21.6 21.6 3.9 0 7.1-3.2 7.1-7.1s-3.2-7.1-7.1-7.1c-4.1 0-7.4-3.3-7.4-7.4v-20.9h62.6c11.8 0 21.3 9.6 21.3 21.3zm-331.6 130.4h-33.8c-7.6 0-13.9 6.2-13.9 13.9v33.8c0 7.6 6.2 13.9 13.9 13.9h33.8c7.6 0 13.9-6.2 13.9-13.9v-33.8c0-7.7-6.2-13.9-13.9-13.9zm-.3 47.3h-33.1v-33.1h33.1zm63-73.6h33.8c7.6 0 13.9-6.2 13.9-13.9v-33.8c0-7.6-6.2-13.9-13.9-13.9h-33.8c-7.6 0-13.9 6.2-13.9 13.9v33.8c0 7.7 6.2 13.9 13.9 13.9zm.3-47.3h33.1v33.1h-33.1zm96.5 208.7c-.2-3.8-3.3-6.8-7.1-6.8-3.9 0-7.1 3.2-7.1 7.1 0 7.6 6.2 13.9 13.9 13.9h33.8c7.6 0 13.9-6.2 13.9-13.9v-33.8c0-7.6-6.2-13.9-13.9-13.9h-33.8c-7.6 0-13.9 6.2-13.9 13.9v9.7c0 3.9 3.2 7.1 7.1 7.1s7.1-3.2 7.1-7.1v-9.3h33.1v33.1zm-96.8-73.6h33.8c7.6 0 13.9-6.2 13.9-13.9v-33.8c0-7.6-6.2-13.9-13.9-13.9h-33.8c-7.6 0-13.9 6.2-13.9 13.9v33.8c0 7.7 6.2 13.9 13.9 13.9zm.3-47.3h33.1v33.1h-33.1zm-.3 135.1h33.8c7.6 0 13.9-6.2 13.9-13.9v-33.8c0-7.6-6.2-13.9-13.9-13.9h-33.8c-7.6 0-13.9 6.2-13.9 13.9v33.8c0 7.7 6.2 13.9 13.9 13.9zm.3-47.3h33.1v33.1h-33.1z" stroke="#000" stroke-miterlimit="10" stroke-width="5"/></svg>

<?xml version="1.0" encoding="utf-8"?>
<!-- Generator: Adobe Illustrator 23.0.6, SVG Export Plug-In . SVG Version: 6.00 Build 0)  -->
<svg version="1.1" id="Capa_1" xmlns="http://www.w3.org/2000/svg" xmlns:xlink="http://www.w3.org/1999/xlink" x="0px" y="0px"
	 viewBox="0 0 512 512" style="enable-background:new 0 0 512 512;" xml:space="preserve">
<style type="text/css">
	.st0{stroke:#000000;stroke-width:5;stroke-miterlimit:10;}
</style>
<g>
	<path class="st0" d="M383.8,251.7h33.8c7.6,0,13.9-6.2,13.9-13.9V204c0-7.6-6.2-13.9-13.9-13.9h-33.8c-7.6,0-13.9,6.2-13.9,13.9
		v33.8C369.9,245.5,376.1,251.7,383.8,251.7z M384.1,204.4h33.1v33.1h-33.1V204.4z M383.8,341.6h33.8c7.6,0,13.9-6.2,13.9-13.9
		v-33.8c0-7.6-6.2-13.9-13.9-13.9h-33.8c-7.6,0-13.9,6.2-13.9,13.9v33.8C369.9,335.4,376.1,341.6,383.8,341.6z M384.1,294.3h33.1
		v33.1h-33.1V294.3z M287.3,251.7h33.8c7.6,0,13.9-6.2,13.9-13.9V204c0-7.6-6.2-13.9-13.9-13.9h-33.8c-7.6,0-13.9,6.2-13.9,13.9
		v33.8C273.5,245.5,279.7,251.7,287.3,251.7z M287.7,204.4h33.1v33.1h-33.1V204.4z M128.2,365.8H94.4c-7.6,0-13.9,6.2-13.9,13.9
		v33.8c0,7.6,6.2,13.9,13.9,13.9h33.8c7.6,0,13.9-6.2,13.9-13.9v-33.8C142.1,372,135.9,365.8,128.2,365.8z M127.9,413.1H94.8V380
		h33.1V413.1z M128.2,190.2H94.4c-7.6,0-13.9,6.2-13.9,13.9v33.8c0,7.6,6.2,13.9,13.9,13.9h33.8c7.6,0,13.9-6.2,13.9-13.9V204
		C142.1,196.4,135.9,190.2,128.2,190.2z M127.9,237.5H94.8v-33.1h33.1V237.5z M287.3,339.5h33.8c7.6,0,13.9-6.2,13.9-13.9v-33.8
		c0-7.6-6.2-13.9-13.9-13.9h-33.8c-7.6,0-13.9,6.2-13.9,13.9v33.8C273.5,333.3,279.7,339.5,287.3,339.5z M287.7,292.2h33.1v33.1
		h-33.1V292.2z M438.5,46.2h-30.3V35.3c0-11.9-9.7-21.6-21.6-21.6h-3.3c-11.9,0-21.6,9.7-21.6,21.6v10.9H150.3V35.3
		c0-11.9-9.7-21.6-21.6-21.6h-3.3c-11.9,0-21.6,9.7-21.6,21.6v10.9H73.5C53.9,46.2,38,62.1,38,81.7v381c0,19.6,15.9,35.5,35.5,35.5
		h365c19.6,0,35.5-15.9,35.5-35.5v-381C474,62.1,458.1,46.2,438.5,46.2L438.5,46.2z M375.9,35.3c0-4.1,3.3-7.4,7.4-7.4h3.3
		c4.1,0,7.4,3.3,7.4,7.4v10.9h-18V35.3z M118.1,35.3c0-4.1,3.3-7.4,7.4-7.4h3.3c4.1,0,7.4,3.3,7.4,7.4v10.9h-18L118.1,35.3
		L118.1,35.3z M459.8,462.8c0,11.7-9.6,21.3-21.3,21.3h-365c-11.7,0-21.3-9.6-21.3-21.3v0c5.9,4.5,13.3,7.1,21.3,7.1h287.7
		c9.5,0,18.4-3.7,25.1-10.4l73.4-73.4V462.8z M379.2,446.6c0.6-2.3,0.9-4.7,0.9-7.2v-47.4c0-8.9,7.3-16.2,16.2-16.2h47.4
		c2.5,0,4.9-0.3,7.2-0.9L379.2,446.6z M459.8,147.6H157.4c-3.9,0-7.1,3.2-7.1,7.1c0,3.9,3.2,7.1,7.1,7.1h302.4v183.7
		c0,8.9-7.3,16.2-16.2,16.2h-47.4c-16.8,0-30.4,13.6-30.4,30.4v47.4c0,8.9-7.3,16.2-16.2,16.2H73.5c-11.8,0-21.3-9.6-21.3-21.3
		V161.8H129c3.9,0,7.1-3.2,7.1-7.1c0-3.9-3.2-7.1-7.1-7.1H52.2V81.7c0-11.8,9.6-21.3,21.3-21.3h30.3v20.9c0,11.9,9.7,21.6,21.6,21.6
		c3.9,0,7.1-3.2,7.1-7.1c0-3.9-3.2-7.1-7.1-7.1c-4.1,0-7.4-3.3-7.4-7.4V60.4h243.6v20.9c0,11.9,9.7,21.6,21.6,21.6
		c3.9,0,7.1-3.2,7.1-7.1c0-3.9-3.2-7.1-7.1-7.1c-4.1,0-7.4-3.3-7.4-7.4V60.4h62.6c11.8,0,21.3,9.6,21.3,21.3L459.8,147.6z
		 M128.2,278H94.4c-7.6,0-13.9,6.2-13.9,13.9v33.8c0,7.6,6.2,13.9,13.9,13.9h33.8c7.6,0,13.9-6.2,13.9-13.9v-33.8
		C142.1,284.2,135.9,278,128.2,278z M127.9,325.3H94.8v-33.1h33.1V325.3z M190.9,251.7h33.8c7.6,0,13.9-6.2,13.9-13.9V204
		c0-7.6-6.2-13.9-13.9-13.9h-33.8c-7.6,0-13.9,6.2-13.9,13.9v33.8C177,245.5,183.2,251.7,190.9,251.7z M191.2,204.4h33.1v33.1h-33.1
		V204.4z M287.7,413.1c-0.2-3.8-3.3-6.8-7.1-6.8c-3.9,0-7.1,3.2-7.1,7.1c0,7.6,6.2,13.9,13.9,13.9h33.8c7.6,0,13.9-6.2,13.9-13.9
		v-33.8c0-7.6-6.2-13.9-13.9-13.9h-33.8c-7.6,0-13.9,6.2-13.9,13.9v9.7c0,3.9,3.2,7.1,7.1,7.1c3.9,0,7.1-3.2,7.1-7.1V380h33.1v33.1
		H287.7z M190.9,339.5h33.8c7.6,0,13.9-6.2,13.9-13.9v-33.8c0-7.6-6.2-13.9-13.9-13.9h-33.8c-7.6,0-13.9,6.2-13.9,13.9v33.8
		C177,333.3,183.2,339.5,190.9,339.5z M191.2,292.2h33.1v33.1h-33.1V292.2z M190.9,427.3h33.8c7.6,0,13.9-6.2,13.9-13.9v-33.8
		c0-7.6-6.2-13.9-13.9-13.9h-33.8c-7.6,0-13.9,6.2-13.9,13.9v33.8C177,421.1,183.2,427.3,190.9,427.3z M191.2,380h33.1v33.1h-33.1
		V380z"/>
</g>
</svg>
